svgs/icons/sm/bar.svg

<svg xmlns="http://www.w3.org/2000/svg" viewBox="0 0 16 16" enable-background="new 0 0 16 16"><path fill="#34363D" d="M13.9.8c.2-.3 0-.8-.4-.8h-11c-.4 0-.6.5-.4.8l4.9 6.2v8h-2c-.5 0-1 .4-1 1h8c0-.5-.4-1-1-1h-2v-8l4.9-6.2zm-5.9 4.2c-.8 0-1.5-.7-1.5-1.5s.7-1.5 1.5-1.5 1.5.7 1.5 1.5-.7 1.5-1.5 1.5z"/></svg>

<svg xmlns="http://www.w3.org/2000/svg" viewBox="0 0 16 16"><path fill="#34363D" d="M13.9.8c.2-.3 0-.8-.4-.8h-11c-.4 0-.6.5-.4.8L7 7v8H5c-.5 0-1 .4-1 1h8c0-.5-.4-1-1-1H9V7L13.9.8zM8 5c-.8 0-1.5-.7-1.5-1.5S7.2 2 8 2s1.5.7 1.5 1.5S8.8 5 8 5z"/></svg>
